keyboards/ergodox_ez/base/keymaps/dvorak_qwerty/icon/screenshot.svg

<svg xmlns="http://www.w3.org/2000/svg" width="633.333" height="633.333" fill="#010101" viewBox="0 0 19 19"><path d="M16 11h-2v3h-3v2h3v3h2v-3h3v-2h-3ZM1 16h3v-2H2v-2H0v3a1 1 0 0 0 1 1M16 1a1 1 0 0 0-1-1h-3v2h2v2h2zM2 2h2V0H1a1 1 0 0 0-1 1v3h2ZM0 6h2v4H0Zm14 0h2v3h-2ZM6 0h4v2H6Zm0 14h3v2H6Z"/></svg>

<?xml version="1.0" encoding="UTF-8" standalone="no"?>
<!-- Uploaded to: SVG Repo, www.svgrepo.com, Generator: SVG Repo Mixer Tools -->

<svg
   fill="#010101"
   width="633.33331"
   height="633.33331"
   viewBox="0 0 18.999999 18.999999"
   version="1.1"
   id="svg101793"
   xmlns="http://www.w3.org/2000/svg"
   xmlns:svg="http://www.w3.org/2000/svg">
  <defs
     id="defs101797" />
  <path
     d="m 16,11 h -2 v 3 h -3 v 2 h 3 v 3 h 2 v -3 h 3 V 14 H 16 Z M 1,16 H 4 V 14 H 2 V 12 H 0 v 3 a 1,1 0 0 0 1,1 z M 16,1 A 1,1 0 0 0 15,0 h -3 v 2 h 2 v 2 h 2 z M 2,2 H 4 V 0 H 1 A 1,1 0 0 0 0,1 V 4 H 2 Z M 0,6 h 2 v 4 H 0 Z m 14,0 h 2 V 9 H 14 Z M 6,0 h 4 V 2 H 6 Z m 0,14 h 3 v 2 H 6 Z"
     id="path101791" />
</svg>
